!!!COM: Ernest Reyer
!!!CNT: Francais
!!!TXO: Francais
!!!OTL: Fleur des Nuits
!!!LYR: Euge\ne de Richemont
!!!ENC: Jacob Pegg
!!!YOR: Romantic French Song 1830-1870 -David Tunley, ed.,
!!!YOR: New York: Garland Publishing, Inc., 1995,
!!!YOR: Vol. 1 - 'Early Romances'
!!!ODT: 1861/
!!NB: Vocal melody and text only encoded.
!!NB: First instance of melodic material only encoded.
**kern	**silbe
*clef G2	*
*k[f#]	*
*M9/8	*
=1	=1
4r	.
8r	.
4r	.
8r	.
{4b	{Fleur
8cc	des
=2	=2
[4.dd	nuits,
4dd]	|
8dd	je
8cc	t'ai-
8a	-me
8cc	d'a-
=3	=3
2.ee}	-mour}
{8ee	{Et
8ff#	so-
8dd	-li-
=4	=4
(4.dd	-tai-
4.gg)	-re,
!!dot immediately prior added to correct timing
8b	Je
ddq	|
8cc	le
8b	pre/-
=5	=5
(4.b	-fe-
4ee)}	-re}
8r	.
{4g	{A
8ee	tes
=6	=6
[4.dd	soeurs
4dd]	|
8b	qui
8dd	bril-
8cc	-lent
8a	au
=7	=7
2.g}	jour!}
4r	.
8r	.
=8	=8
1r	.
8r	.
=9	=9
2.r	.
4.r	.
=10	=10
8r	.
1r	.
=11	=11
2.r	.
4.r	.
=12	=12
4r	.
8r	.
4r	.
{8g	{Lors-
4g	-que
8a	la
=13	=13
[4.b	nuit,
4b]	|
8b	com-
(8b	-me
8cc)	un
8dd	long
=14	=14
[4.ee	voi-
4ee]}	-le,}
8r	.
8r	.
{8ee	{Vient
8ee	cou-
=15	=15
(4.ff#	-vrir
4b)	|
8b	les
8b	champs
(ddq	|
8cc)	de
8b	l'e/-
=16	=16
(4.b	-ther,
4ee)}	|}
8r	.
{4ee	{Tu
8ee	t'e/-
=17	=17
[4.ee	-veil-
8ee]	|
8dd	-les
8cc#	a-
(8cc#	-vec
8b)	|
8a	l'e/-
=18	=18
(4.a	-toi-
4dd)}	-le,}
8r	.
{(8b	{Et
8gg	|
8ee)	|
=19	=19
[4.a	jet-
8a]	-tes
8f#	tes
8dd	par-
(8b	-fums
8cc#)	|
8a	dans
=20	=20
2.dd}	l'air.}
4r	.
8r	.
=21	=21
{8ffn	{Tu
8dd	la
8cc	che/-
4b-	-ris
8b-	la
(8b-	soeur
8cc)	|
8ffn	mi-
=22	=22
(4.ffn	-gnon-
4ee-)}	-ne,}
8r	.
{8ee-	{Cet-
8cc	-te
8b-	autre
=23	=23
[4.a	fleur
4a]	|
8b-	du
8cc	fir-
8dd	|
8ee-	-ma-
=24	=24
(4.ee-	-ment,
4dd)}	|}
8r	.
{8dd	{Car
8dd	cha-
8dd	-que
=25	=25
[4.ff#	soir
4ff#]	|
8dd	el-
(8a	-le
8dd)	|
8ff#	te
=26	=26
(4ff#	don-
8ee)	|
4dd}	-ne}
8r	.
{8b	{De
8gg	ses
!!prior note reduced to half original value to correct timing
8ee	ray-
=27	=27
[4.a	-ons
(8a]	|
8f#)	|
8dd	le
(8b	plus
8cc#)	|
8a	char-
=28	=28
2.dd}	-mant.}
4r	.
8r	.
*-	*-
